X:160
T: Paddy Kelly's (B)
S: M.Mulhaire
Z: B.Black
R: reel
M: 4/4
L: 1/8
K: Dmix
AD D2 (3DEF GA | cAGE CDEG | AD D2 (3DEF GA |\
c2 ec dcAG |
AD D2 (3DEF GA | cAGE CDEG | AD D2 (3DEF GA |\
cAGE ED D2 :|
K: D
fd (3dcd Adfd | e=c (3cBc efge | fd (3dcd Adfd |\
g2 eg fd d2 |
fd (3dcd Adfd | e=c (3cBc efge | afge fd (3Bcd |\
eaag fd d2 :|

